app/img/icons/shopping-cart.svg

<svg xmlns="http://www.w3.org/2000/svg" viewBox="0 0 260.293 260.293" width="512" height="512"><g fill="#434a53"><path d="M258.727 57.459a7.501 7.501 0 0 0-5.934-2.913H62.004l-8.333-32.055a7.499 7.499 0 0 0-7.259-5.613H7.5a7.5 7.5 0 0 0 0 15h33.112l8.333 32.055.001.002 29.381 112.969a7.499 7.499 0 0 0 7.258 5.612h137.822a7.499 7.499 0 0 0 7.258-5.612L260.05 63.933a7.492 7.492 0 0 0-1.323-6.474zm-140.85 110.058H91.385l-5.892-22.652h32.384v22.652zm0-37.653H81.592l-5.895-22.667h42.18v22.667zm0-37.667H71.795l-5.891-22.651h51.973v22.651zm58.242 75.32h-43.242v-22.652h43.242v22.652zm0-37.653h-43.242v-22.667h43.242v22.667zm0-37.667h-43.242V69.546h43.242v22.651zm41.49 75.32h-26.49v-22.652h32.382l-5.892 22.652zm9.794-37.653h-36.284v-22.667h42.18l-5.896 22.667zm9.798-37.667H191.12V69.546h51.974l-5.893 22.651zM105.482 188.62c-15.106 0-27.396 12.29-27.396 27.395 0 15.108 12.29 27.4 27.396 27.4 15.105 0 27.395-12.292 27.395-27.4 0-15.105-12.289-27.395-27.395-27.395zm0 39.795c-6.835 0-12.396-5.563-12.396-12.4 0-6.835 5.561-12.395 12.396-12.395 6.834 0 12.395 5.561 12.395 12.395 0 6.838-5.56 12.4-12.395 12.4zM203.512 188.62c-15.104 0-27.392 12.29-27.392 27.395 0 15.108 12.288 27.4 27.392 27.4 15.107 0 27.396-12.292 27.396-27.4 0-15.105-12.29-27.395-27.396-27.395zm0 39.795c-6.833 0-12.392-5.563-12.392-12.4 0-6.835 5.559-12.395 12.392-12.395 6.836 0 12.396 5.561 12.396 12.395 0 6.838-5.561 12.4-12.396 12.4z"/></g></svg>

<?xml version="1.0" encoding="iso-8859-1"?>
<!-- Generator: Adobe Illustrator 18.0.0, SVG Export Plug-In . SVG Version: 6.00 Build 0)  -->
<!DOCTYPE svg PUBLIC "-//W3C//DTD SVG 1.1//EN" "http://www.w3.org/Graphics/SVG/1.1/DTD/svg11.dtd">
<svg xmlns="http://www.w3.org/2000/svg" xmlns:xlink="http://www.w3.org/1999/xlink" version="1.1" id="Capa_1" x="0px" y="0px" viewBox="0 0 260.293 260.293" style="enable-background:new 0 0 260.293 260.293;" xml:space="preserve" width="512px" height="512px">
<g>
	<path d="M258.727,57.459c-1.42-1.837-3.612-2.913-5.934-2.913H62.004l-8.333-32.055c-0.859-3.306-3.843-5.613-7.259-5.613H7.5   c-4.142,0-7.5,3.358-7.5,7.5c0,4.142,3.358,7.5,7.5,7.5h33.112l8.333,32.055c0,0.001,0,0.001,0.001,0.002l29.381,112.969   c0.859,3.305,3.843,5.612,7.258,5.612h137.822c3.415,0,6.399-2.307,7.258-5.612l29.385-112.971   C260.636,61.687,260.147,59.295,258.727,57.459z M117.877,167.517H91.385l-5.892-22.652h32.384V167.517z M117.877,129.864H81.592   l-5.895-22.667h42.18V129.864z M117.877,92.197H71.795l-5.891-22.651h51.973V92.197z M176.119,167.517h-43.242v-22.652h43.242   V167.517z M176.119,129.864h-43.242v-22.667h43.242V129.864z M176.119,92.197h-43.242V69.546h43.242V92.197z M217.609,167.517   h-26.49v-22.652h32.382L217.609,167.517z M227.403,129.864h-36.284v-22.667h42.18L227.403,129.864z M237.201,92.197h-46.081V69.546   h51.974L237.201,92.197z" fill="#434a53"/>
	<path d="M105.482,188.62c-15.106,0-27.396,12.29-27.396,27.395c0,15.108,12.29,27.4,27.396,27.4   c15.105,0,27.395-12.292,27.395-27.4C132.877,200.91,120.588,188.62,105.482,188.62z M105.482,228.415   c-6.835,0-12.396-5.563-12.396-12.4c0-6.835,5.561-12.395,12.396-12.395c6.834,0,12.395,5.561,12.395,12.395   C117.877,222.853,112.317,228.415,105.482,228.415z" fill="#434a53"/>
	<path d="M203.512,188.62c-15.104,0-27.392,12.29-27.392,27.395c0,15.108,12.288,27.4,27.392,27.4   c15.107,0,27.396-12.292,27.396-27.4C230.908,200.91,218.618,188.62,203.512,188.62z M203.512,228.415   c-6.833,0-12.392-5.563-12.392-12.4c0-6.835,5.559-12.395,12.392-12.395c6.836,0,12.396,5.561,12.396,12.395   C215.908,222.853,210.347,228.415,203.512,228.415z" fill="#434a53"/>
</g>
<g>
</g>
<g>
</g>
<g>
</g>
<g>
</g>
<g>
</g>
<g>
</g>
<g>
</g>
<g>
</g>
<g>
</g>
<g>
</g>
<g>
</g>
<g>
</g>
<g>
</g>
<g>
</g>
<g>
</g>
</svg>
